**kern	**kern	**dynam
*part1	*part1	*part1
*staff2	*staff1	*
*I"Piano	*	*
*clefF4	*clefG2	*
*k[f#c#]	*k[f#c#]	*
=1	=1	=1
4E]	4B] 4e] 4g]	.
4F#	4B 4d#X 4f#	.
=	=	=
[2G	[2B [2e	f
=	=	=
4G]	4B] 4e]	.
(4G#X	([4d 4e	<
=	=	=
2A)	2d]) 2f#	[
=	=	=
*^	*	*
2G	2AA	2c# 2e 2a	>
=	=	=	=
2F# 2A	4AA	2d 2f#	]
.	4DD	.	.
=	=	=	=
2E 2G 2A	8rBB	2e	p
.	8DD	.	.
.	8.BBBL	.	.
.	16CC#Jk	.	.
=	=	=	=
4D 4F# 4A	4DD	4d	.
[4F# [4A	[4D	4ryy	.
=	=	=	=
8F#L] 8A]	8DL]	2ryy	.
8F# 8A	8D	.	.
8A 8d	8F#	.	.
8dJ> 8f#>	8AJ	.	.
*v	*v	*	*
=	=	=
4d	(2f# 2a	.
4cn	.	.
=	=	=
4B	4fn 4g#X	.
4B-X	[4d 4gn	.
=	=	=
4A	(4d']) 4f#	.
[4AA	4G') 4A 4c# 4e	.
=	=	=
*^	*	*
4.F# 4.A	4.DD 4.AA]	4.d	.
*v	*v	*	*
8rGG	8A	.
=:|!	=:|!	=:|!
*^	*	*
2F# 2A	2DD;	2d;	.
*v	*v	*	*
==	==	==
*-	*-	*-
!!!system-decoration: {(s1,s2)}
!!!RDF**kern: > = above
